Catalina-dark/actions/16/giggle-branch.svg

<?xml version="1.0" encoding="UTF-8" standalone="no"?>
<svg
   xmlns:dc="http://purl.org/dc/elements/1.1/"
   xmlns:cc="http://creativecommons.org/ns#"
   xmlns:rdf="http://www.w3.org/1999/02/22-rdf-syntax-ns#"
   xmlns:svg="http://www.w3.org/2000/svg"
   xmlns="http://www.w3.org/2000/svg"
   xmlns:sodipodi="http://sodipodi.sourceforge.net/DTD/sodipodi-0.dtd"
   xmlns:inkscape="http://www.inkscape.org/namespaces/inkscape"
   width="16"
   height="16"
   version="1.1"
   viewBox="0 0 16 16"
   id="svg13"
   sodipodi:docname="giggle-branch.svg"
   inkscape:version="0.92.4 5da689c313, 2019-01-14">
  <metadata
     id="metadata17">
    <rdf:RDF>
      <cc:Work
         rdf:about="">
        <dc:format>image/svg+xml</dc:format>
        <dc:type
           rdf:resource="http://purl.org/dc/dcmitype/StillImage" />
      </cc:Work>
    </rdf:RDF>
  </metadata>
  <sodipodi:namedview
     pagecolor="#ffffff"
     bordercolor="#666666"
     borderopacity="1"
     objecttolerance="10"
     gridtolerance="10"
     guidetolerance="10"
     inkscape:pageopacity="0"
     inkscape:pageshadow="2"
     inkscape:window-width="715"
     inkscape:window-height="480"
     id="namedview15"
     showgrid="false"
     inkscape:zoom="14.75"
     inkscape:cx="6.8135593"
     inkscape:cy="8"
     inkscape:window-x="0"
     inkscape:window-y="26"
     inkscape:window-maximized="0"
     inkscape:current-layer="svg13" />
  <defs
     id="defs3">
    <style
       id="current-color-scheme"
       type="text/css">
   .ColorScheme-Text { color:#5c616c; } .ColorScheme-Highlight { color:#5294e2; }
  </style>
  </defs>
  <path
     style="fill:#f1f6f8;fill-opacity:0.8509804"
     d="M 4.5 1 A 2.5 2.5 0 0 0 2 3.5 A 2.5 2.5 0 0 0 4 5.9492188 L 4 10.054688 A 2.5 2.5 0 0 0 2 12.5 A 2.5 2.5 0 0 0 4.5 15 A 2.5 2.5 0 0 0 7 12.5 A 2.5 2.5 0 0 0 5 10.050781 L 5 5.9453125 A 2.5 2.5 0 0 0 5.8769531 5.5839844 L 9.4160156 9.1230469 A 2.5 2.5 0 0 0 9 10.5 A 2.5 2.5 0 0 0 11.5 13 A 2.5 2.5 0 0 0 14 10.5 A 2.5 2.5 0 0 0 11.5 8 A 2.5 2.5 0 0 0 10.123047 8.4160156 L 6.5839844 4.8769531 A 2.5 2.5 0 0 0 7 3.5 A 2.5 2.5 0 0 0 4.5 1 z "
     id="circle5" />
</svg>

<svg width="16" height="16" version="1.1" viewBox="0 0 16 16" xmlns="http://www.w3.org/2000/svg">
<defs>
<style id="current-color-scheme" type="text/css">.ColorScheme-Text { color:#5c616c; } .ColorScheme-Highlight { color:#5294e2; }</style>
</defs>
<path d="m4.5 1a2.5 2.5 0 0 0-2.5 2.5 2.5 2.5 0 0 0 2 2.4492v4.1055a2.5 2.5 0 0 0-2 2.4453 2.5 2.5 0 0 0 2.5 2.5 2.5 2.5 0 0 0 2.5-2.5 2.5 2.5 0 0 0-2-2.4492v-4.1055a2.5 2.5 0 0 0 0.87695-0.36133l3.5391 3.5391a2.5 2.5 0 0 0-0.41602 1.377 2.5 2.5 0 0 0 2.5 2.5 2.5 2.5 0 0 0 2.5-2.5 2.5 2.5 0 0 0-2.5-2.5 2.5 2.5 0 0 0-1.377 0.41602l-3.5391-3.5391a2.5 2.5 0 0 0 0.41602-1.377 2.5 2.5 0 0 0-2.5-2.5z" fill="#f1f6f8" fill-opacity=".85098"/>
</svg>
